src/topics/icons/semantic-ui.svg

<svg height="256" preserveAspectRatio="xMidYMid" viewBox="0 0 256 256" width="256" xmlns="http://www.w3.org/2000/svg"><path d="m0 0h256v256h-256z" fill="#34bdb2"/><path d="m168.461 87.041c-13.516-7.842-25.514-14.009-41.21-13.737-8.98.156-16.69 5.037-18.311 13.97-1.509 8.311 5.879 12.921 13.565 15.751 12.747 4.694 23.844 9.65 36.369 14.869 22.769 9.489 34.444 24.856 33.064 44.573-1.756 25.087-16.854 43.08-40.849 49.012-31.354 7.752-61.801-4.056-87.526-20.54 6.493-9.891 14.026-16.643 20.48-26.474 14.862 6.326 26.538 14.874 42.086 16.207 10.963.94 23.385.417 25.848-12.46 2.22-11.612-7.886-17.837-17.743-21.314-11.735-4.139-23.448-9.202-34.956-13.902-21.273-8.689-29.929-25.684-28.472-45.705 0-11.739 9.74-35.466 33.621-42.846 36.692-11.34 56.908.272 83.515 17.371-7.067 9.346-12.5 15.991-19.481 25.225" fill="#fff"/></svg>

<?xml version="1.0" encoding="UTF-8" standalone="no"?>
<svg width="256px" height="256px" viewBox="0 0 256 256" version="1.1" xmlns="http://www.w3.org/2000/svg" xmlns:xlink="http://www.w3.org/1999/xlink" preserveAspectRatio="xMidYMid">
	<g>
		<path d="M0,0 L256,0 L256,256 L0,256 L0,0 Z" fill="#34BDB2"></path>
		<path d="M168.461,87.041 C154.945,79.199 142.947,73.032 127.251,73.304 C118.271,73.46 110.561,78.341 108.94,87.274 C107.431,95.585 114.819,100.195 122.505,103.025 C135.252,107.719 146.349,112.675 158.874,117.894 C181.643,127.383 193.318,142.75 191.938,162.467 C190.182,187.554 175.084,205.547 151.089,211.479 C119.735,219.231 89.288,207.423 63.563,190.939 C70.056,181.048 77.589,174.296 84.043,164.465 C98.905,170.791 110.581,179.339 126.129,180.672 C137.092,181.612 149.514,181.089 151.977,168.212 C154.197,156.6 144.091,150.375 134.234,146.898 C122.499,142.759 110.786,137.696 99.278,132.996 C78.005,124.307 69.349,107.312 70.806,87.291 C70.806,75.552 80.546,51.825 104.427,44.445 C141.119,33.105 161.335,44.717 187.942,61.816 C180.875,71.162 175.442,77.807 168.461,87.041" fill="#FFFFFF"></path>
	</g>
</svg>
